ix/group_bulk.svg

<svg viewBox="0 0 24 24" fill="none" xmlns="http://www.w3.org/2000/svg" height="1em" width="1em">
  <path d="M15 3v9c0 1.1-.9 2-2 2H2V6c0-2.21 1.79-4 4-4h8c.55 0 1 .45 1 1Z" fill="#292D32"/>
  <path opacity=".4" d="M22 14v3c0 1.66-1.34 3-3 3h-1c0-1.1-.9-2-2-2s-2 .9-2 2h-4c0-1.1-.9-2-2-2s-2 .9-2 2H5c-1.66 0-3-1.34-3-3v-3h11c1.1 0 2-.9 2-2V5h1.84c.72 0 1.38.39 1.74 1.01L20.29 9H19c-.55 0-1 .45-1 1v3c0 .55.45 1 1 1h3Z" fill="#292D32"/>
  <path d="M8 22a2 2 0 1 0 0-4 2 2 0 0 0 0 4Zm8 0a2 2 0 1 0 0-4 2 2 0 0 0 0 4Zm6-9.47V14h-3c-.55 0-1-.45-1-1v-3c0-.55.45-1 1-1h1.29l1.45 2.54c.17.3.26.64.26.99Z" fill="#292D32"/>
</svg>

<svg viewBox="0 0 24 24" fill="none" xmlns="http://www.w3.org/2000/svg" height="1em" width="1em">
  <path d="M15 3V12C15 13.1 14.1 14 13 14H2V6C2 3.79 3.79 2 6 2H14C14.55 2 15 2.45 15 3Z" fill="#292D32"/>
  <path opacity="0.4" d="M22 14V17C22 18.66 20.66 20 19 20H18C18 18.9 17.1 18 16 18C14.9 18 14 18.9 14 20H10C10 18.9 9.1 18 8 18C6.9 18 6 18.9 6 20H5C3.34 20 2 18.66 2 17V14H13C14.1 14 15 13.1 15 12V5H16.84C17.56 5 18.22 5.39001 18.58 6.01001L20.29 9H19C18.45 9 18 9.45 18 10V13C18 13.55 18.45 14 19 14H22Z" fill="#292D32"/>
  <path d="M8 22C9.10457 22 10 21.1046 10 20C10 18.8954 9.10457 18 8 18C6.89543 18 6 18.8954 6 20C6 21.1046 6.89543 22 8 22Z" fill="#292D32"/>
  <path d="M16 22C17.1046 22 18 21.1046 18 20C18 18.8954 17.1046 18 16 18C14.8954 18 14 18.8954 14 20C14 21.1046 14.8954 22 16 22Z" fill="#292D32"/>
  <path d="M22 12.53V14H19C18.45 14 18 13.55 18 13V10C18 9.45 18.45 9 19 9H20.29L21.74 11.54C21.91 11.84 22 12.18 22 12.53Z" fill="#292D32"/>
</svg>
